logos/open-graph.svg

<?xml version="1.0" encoding="UTF-8" standalone="no" ?>
<svg width="256px" height="209px" viewBox="0 0 256 209" version="1.1" xmlns="http://www.w3.org/2000/svg" xmlns:xlink="http://www.w3.org/1999/xlink" preserveAspectRatio="xMidYMid">
    <g>
        <path d="M231.941469,142.042393 C228.408538,142.042393 224.985606,142.814378 221.961664,144.188352 C220.635691,143.382367 219.962703,142.600383 217.962742,141.838397 L217.962742,52.714138 L127.750505,0.214163424 L51.9879846,44.9352899 C50.7020097,44.1823046 49.4080349,43.39632 48.0810608,42.5923357 C47.9720629,29.4245928 37.2382727,18.7448015 24.0455303,18.7448015 C10.7847893,18.7448015 0,29.5335907 0,42.7943317 C0,56.0550727 10.7907893,66.8438619 24.0515303,66.8438619 C27.5844612,66.8438619 31.0823929,66.071877 34.1063338,64.6979038 C35.3593094,65.4598889 36.9662779,66.1998746 37.9662584,66.9218604 L37.9662584,156.852103 L128.050499,208.995085 L204.547005,164.248959 C205.670982,164.910946 206.776961,165.593933 207.931939,166.294919 C208.041936,179.462662 218.766727,190.142453 231.959469,190.142453 C245.22021,190.142453 256,179.352665 256,166.091923 C256,152.831182 245.20221,142.042393 231.941469,142.042393" fill="#B8C6C9"></path>
        <g transform="translate(13.000000, 15.000000)" fill="#759BC5">
            <path d="M114.875896,179.068631 L192.024273,133.928202 L192.024273,45.2790679 L114.871894,0.360007825 L37.7655365,45.908119 L37.7655365,134.451075 L114.875896,179.068631"></path>
            <path d="M229.932656,151.290213 C229.932656,157.33832 225.035411,162.240511 218.995641,162.240511 C212.954872,162.240511 208.058626,157.33832 208.058626,151.290213 C208.058626,145.243108 212.954872,140.339915 218.995641,140.339915 C225.035411,140.339915 229.932656,145.243108 229.932656,151.290213"></path>
            <path d="M0.0722518818,27.7838332 C0.0722518818,21.7367285 4.9684971,16.8335352 11.0092672,16.8335352 C17.0490367,16.8335352 21.9462824,21.7367285 21.9462824,27.7838332 C21.9462824,33.830938 17.0490367,38.7341312 11.0092672,38.7341312 C4.9684971,38.7341312 0.0722518818,33.830938 0.0722518818,27.7838332"></path>
        </g>
        <path d="M232.0958,172.749399 C228.475821,172.749399 225.531399,169.803975 225.531399,166.183996 C225.531399,162.564017 228.475821,159.619594 232.0958,159.619594 C235.715779,159.619594 238.660202,162.564017 238.660202,166.183996 C238.660202,169.803975 235.715779,172.749399 232.0958,172.749399 L232.0958,172.749399 L232.0958,172.749399 Z M142.936432,180.104451 C150.08131,169.811982 158.549279,155.061843 163.758566,137.344264 C174.824672,139.615133 185.153171,143.295161 196.357391,148.885762 L142.936432,180.104451 L142.936432,180.104451 Z M89.0150595,78.0404631 C87.2886388,85.2433904 86.1056654,92.9147031 85.8384454,100.985345 C75.7801686,100.988347 65.9801041,100.988347 54.9710448,100.988347 L54.9710448,65.5712022 C65.9801041,71.5060859 77.5686403,75.5073786 89.0150595,78.0404631 L89.0150595,78.0404631 L89.0150595,78.0404631 Z M24.0335864,49.3468512 C20.4136075,49.3468512 17.4681838,46.4024283 17.4681838,42.7824494 C17.4681838,39.1624705 20.4136075,36.2180475 24.0335864,36.2180475 C27.6535652,36.2180475 30.5979883,39.1624705 30.5979883,42.7824494 C30.5979883,46.4024283 27.6535652,49.3468512 24.0335864,49.3468512 L24.0335864,49.3468512 L24.0335864,49.3468512 Z M111.458528,30.1840821 C104.280621,40.2083311 96.0648608,54.2668999 90.9336383,71.318932 C80.588125,69.0680797 70.8300951,65.5501849 60.3244501,60.3539088 L111.458528,30.1840821 L111.458528,30.1840821 Z M130.844481,127.264969 C130.850486,124.573755 130.858493,121.840506 130.866499,119.076231 C136.539167,117.939296 141.041872,113.563695 142.389982,107.970092 C149.321686,107.976097 155.945136,107.9801 162.442483,107.981101 C162.178265,115.461256 161.095374,122.658179 159.452022,129.477791 C150.664791,128.048615 141.337115,127.374059 130.844481,127.264969 L130.844481,127.264969 L130.844481,127.264969 Z M130.832471,134.26573 C140.69859,134.366813 149.42377,134.966308 157.612508,136.240355 C150.685808,159.065138 138.083438,176.911824 130.977591,185.735084 C130.85649,169.410651 130.808451,152.61483 130.832471,134.26573 L130.832471,134.26573 L130.832471,134.26573 Z M90.9506524,138.319067 C96.0908822,155.439154 104.316651,169.440677 111.501564,179.384859 L59.0173745,149.052899 C65.4416611,146.034416 76.4577262,141.560734 90.9506524,138.319067 L90.9506524,138.319067 L90.9506524,138.319067 Z M113.487198,107.973094 C114.814289,113.475622 119.195895,117.794176 124.740458,119.01418 C124.731451,121.805477 124.723444,124.565749 124.717439,127.282984 C113.907543,127.465134 104.002392,128.604072 95.1721261,130.253429 C93.4717269,123.26768 92.359812,115.820553 92.1106068,107.985105 C99.0753381,107.983102 106.127141,107.9791 113.487198,107.973094 L113.487198,107.973094 L113.487198,107.973094 Z M124.712435,81.6974725 C124.71944,84.4597455 124.727447,87.2150128 124.736454,89.9662768 C119.205903,91.1842791 114.833305,95.4858189 113.496205,100.970332 C106.136148,100.976337 99.0853463,100.98034 92.1216159,100.983342 C92.3888358,93.3310457 93.4727277,86.05706 95.1200833,79.2254382 C104.204559,80.8077403 113.831481,81.5623613 124.712435,81.6974725 L124.712435,81.6974725 L124.712435,81.6974725 Z M124.643378,27.9602522 C124.652385,43.3158883 124.662393,59.0448316 124.695421,74.6947099 C114.451992,74.5686061 105.434571,73.900056 96.9615987,72.4798873 C104.083459,49.1757104 117.236283,31.8034147 124.640376,23.3364473 L124.643378,27.9602522 L124.643378,27.9602522 Z M163.611445,71.1107606 C158.417171,53.7624848 150.098325,39.3426187 143.042519,29.2292965 L196.81777,60.5010299 C190.177306,63.5165114 178.71087,67.9871903 163.611445,71.1107606 L163.611445,71.1107606 L163.611445,71.1107606 Z M130.77042,27.9562489 L130.767418,23.2573822 C137.782189,31.8324386 150.459622,49.4749566 157.484403,72.2627086 C149.42377,73.6298336 140.487416,74.5545946 130.822463,74.6897057 C130.789435,59.0408284 130.779427,43.311885 130.77042,27.9562489 L130.77042,27.9562489 L130.77042,27.9562489 Z M127.938089,112.366711 C123.594515,112.366711 120.060607,108.832802 120.060607,104.489228 C120.060607,100.145653 123.594515,96.6117453 127.938089,96.6117453 C132.281664,96.6117453 135.815571,100.145653 135.815571,104.489228 C135.815571,108.832802 132.281664,112.366711 127.938089,112.366711 L127.938089,112.366711 L127.938089,112.366711 Z M124.854552,186.212477 C117.542535,177.868611 104.272615,160.449277 97.0536744,137.069038 C105.365515,135.529771 114.647152,134.466896 124.705429,134.285748 C124.681409,152.803986 124.73045,169.742924 124.854552,186.212477 L124.854552,186.212477 L124.854552,186.212477 Z M142.378973,100.96733 C141.017853,95.3927422 136.523153,91.0351564 130.862496,89.9022241 C130.854489,87.1709765 130.846482,84.434725 130.839477,81.6924683 C141.238034,81.5553555 150.796899,80.5615377 159.368953,79.0893262 C161.063348,86.0150254 162.180267,93.3430555 162.444484,100.97934 C155.944136,100.977338 149.31468,100.973334 142.378973,100.96733 L142.378973,100.96733 L142.378973,100.96733 Z M200.090463,100.957322 C190.082228,100.971333 178.883012,100.97934 168.252263,100.97934 C167.995052,92.9127015 166.695983,85.2023566 164.960555,77.9363774 C181.281986,74.5505913 194.085522,69.6435533 200.090463,66.4479236 L200.090463,100.957322 L200.090463,100.957322 Z M54.9710448,107.990108 C65.9801041,107.990108 75.823204,107.990108 85.8764768,107.987106 C86.119677,116.283934 87.2075722,124.140398 88.9590134,131.492449 C73.3391599,134.987325 61.9768098,139.870343 54.9710448,143.081985 L54.9710448,107.990108 L54.9710448,107.990108 Z M165.216766,130.605719 C166.895147,123.454835 167.832919,115.884604 168.08913,107.982102 C178.717876,107.981101 190.082228,107.974095 200.090463,107.959083 L200.090463,143.286153 C189.081404,137.158111 177.142579,133.102774 165.216766,130.605719 L165.216766,130.605719 L165.216766,130.605719 Z M232.0958,150.867392 C227.982416,150.867392 224.053182,152.50574 221.298916,155.153919 C217.139493,152.544772 213.10117,150.163813 209.097876,147.982018 L209.097876,57.7457626 L127.721911,10.3097276 L51.1358888,55.553959 C47.0485254,53.2660763 42.858077,50.7369951 38.3904006,47.9346891 C38.9698774,46.3213615 39.3261706,44.5919384 39.3261706,42.7824494 C39.3261706,34.3364992 32.4665259,27.4658453 24.0205757,27.4658453 C15.5746255,27.4658453 8.70997665,34.3364992 8.70997665,42.7824494 C8.70997665,51.2283995 15.5846338,58.1000542 24.030584,58.1000542 C28.1439688,58.1000542 31.6468514,56.461706 34.4021187,53.8135268 C38.484478,56.3736335 42.9611618,58.7135591 45.9636326,60.8623273 L45.9636326,151.88523 L127.71991,199 L205.32477,153.715736 C209.242995,155.922552 213.363385,158.354554 217.631898,161.031756 C217.052421,162.645084 216.749172,164.374507 216.749172,166.183996 C216.749172,174.629946 223.634837,181.501601 232.080788,181.501601 C240.526738,181.501601 247.405399,174.629946 247.405399,166.183996 C247.405399,157.738046 240.541751,150.867392 232.0958,150.867392 L232.0958,150.867392 L232.0958,150.867392 Z" fill="#343532"></path>
    </g>
</svg>

<svg width="256" height="209" xmlns="http://www.w3.org/2000/svg" preserveAspectRatio="xMidYMid">
	<path d="M231.941 142.042c-3.532 0-6.955.772-9.98 2.146-1.325-.806-1.998-1.588-3.998-2.35V52.714L127.75.214 51.988 44.935c-1.286-.753-2.58-1.539-3.907-2.343-.109-13.167-10.843-23.847-24.035-23.847C10.785 18.745 0 29.534 0 42.795c0 13.26 10.79 24.049 24.052 24.049 3.532 0 7.03-.772 10.054-2.146 1.253.762 2.86 1.502 3.86 2.224v89.93l90.084 52.143 76.497-44.746c1.124.662 2.23 1.345 3.385 2.046.11 13.168 10.835 23.847 24.027 23.847 13.261 0 24.041-10.79 24.041-24.05 0-13.26-10.798-24.05-24.059-24.05" fill="#B8C6C9"/>
	<g fill="#759BC5">
		<path d="m127.876 194.069 77.148-45.14v-88.65L127.872 15.36 50.766 60.908v88.543l77.11 44.618"/>
		<path d="M242.933 166.29c0 6.048-4.898 10.95-10.937 10.95-6.041 0-10.937-4.902-10.937-10.95 0-6.047 4.896-10.95 10.937-10.95 6.04 0 10.937 4.903 10.937 10.95"/>
		<path d="M13.072 42.784c0-6.047 4.896-10.95 10.937-10.95 6.04 0 10.937 4.903 10.937 10.95s-4.897 10.95-10.937 10.95c-6.04 0-10.937-4.903-10.937-10.95"/>
	</g>
	<path d="M232.096 172.75a6.572 6.572 0 0 1-6.565-6.566 6.571 6.571 0 0 1 6.565-6.564 6.571 6.571 0 0 1 6.564 6.564 6.572 6.572 0 0 1-6.564 6.565Zm-89.16 7.354c7.145-10.292 15.613-25.042 20.823-42.76 11.066 2.271 21.394 5.951 32.598 11.542l-53.42 31.218ZM89.016 78.04c-1.727 7.203-2.91 14.875-3.178 22.945-10.058.003-19.858.003-30.867.003V65.571c11.01 5.935 22.598 9.936 34.044 12.47ZM24.033 49.347a6.572 6.572 0 0 1-6.566-6.565 6.572 6.572 0 0 1 6.566-6.564 6.571 6.571 0 0 1 6.564 6.564 6.571 6.571 0 0 1-6.564 6.565Zm87.425-19.163C104.28 40.208 96.065 54.267 90.934 71.32c-10.346-2.25-20.104-5.769-30.61-10.965l51.135-30.17Zm19.385 97.081c.006-2.691.014-5.424.022-8.189 5.673-1.137 10.176-5.512 11.524-11.106 6.932.006 13.555.01 20.052.011-.264 7.48-1.347 14.677-2.99 21.497-8.787-1.43-18.115-2.104-28.608-2.213Zm-.012 7c9.867.102 18.592.701 26.78 1.975-6.926 22.825-19.529 40.672-26.634 49.495a5849.5 5849.5 0 0 1-.146-51.47Zm-39.881 4.054c5.14 17.12 13.366 31.122 20.55 41.066l-52.484-30.332c6.425-3.019 17.44-7.492 31.934-10.734Zm22.536-30.346c1.327 5.503 5.709 9.821 11.253 11.041-.009 2.791-.017 5.552-.023 8.269a177.221 177.221 0 0 0-29.545 2.97c-1.7-6.985-2.812-14.432-3.061-22.268 6.964-.002 14.016-.006 21.376-.012Zm11.225-26.276c.007 2.763.015 5.518.024 8.27-5.53 1.217-9.903 5.519-11.24 11.003-7.36.006-14.41.01-21.374.013.267-7.652 1.35-14.926 2.998-21.758 9.085 1.583 18.711 2.337 29.592 2.472Zm-.069-53.737c.01 15.356.02 31.085.052 46.735-10.243-.126-19.26-.795-27.733-2.215 7.121-23.304 20.274-40.677 27.678-49.144l.003 4.624Zm38.968 43.15c-5.194-17.348-13.513-31.767-20.568-41.88L196.818 60.5c-6.64 3.016-18.107 7.486-33.207 10.61Zm-32.84-43.154-.004-4.699c7.015 8.575 19.693 26.218 26.717 49.006a174.046 174.046 0 0 1-26.662 2.427 30724.11 30724.11 0 0 1-.052-46.734Zm-2.833 84.41c-4.343 0-7.877-3.533-7.877-7.877 0-4.343 3.534-7.877 7.877-7.877 4.344 0 7.878 3.534 7.878 7.877 0 4.344-3.534 7.878-7.878 7.878Zm-3.083 73.846c-7.312-8.343-20.582-25.763-27.801-49.143a168.663 168.663 0 0 1 27.651-2.783 5831.12 5831.12 0 0 0 .15 51.926Zm17.524-85.245c-1.361-5.574-5.856-9.932-11.517-11.065l-.023-8.21a182.843 182.843 0 0 0 28.53-2.603c1.694 6.926 2.811 14.254 3.075 21.89-6.5-.002-13.13-.006-20.065-.012Zm57.711-.01c-10.008.014-21.207.022-31.838.022-.257-8.066-1.556-15.777-3.291-23.043 16.321-3.385 29.125-8.292 35.13-11.488v34.51ZM54.971 107.99c11.01 0 20.852 0 30.905-.003.244 8.297 1.332 16.153 3.083 23.505-15.62 3.495-26.982 8.378-33.988 11.59V107.99Zm110.246 22.616c1.678-7.151 2.616-14.721 2.872-22.624 10.629 0 21.993-.008 32.001-.023v35.327c-11.009-6.128-22.947-10.183-34.873-12.68Zm66.879 20.261c-4.114 0-8.043 1.639-10.797 4.287-4.16-2.61-8.198-4.99-12.201-7.172V57.746L127.722 10.31 51.136 55.554c-4.087-2.288-8.278-4.817-12.746-7.62.58-1.613.936-3.342.936-5.152 0-8.446-6.86-15.316-15.305-15.316-8.446 0-15.311 6.87-15.311 15.316 0 8.446 6.875 15.318 15.32 15.318 4.114 0 7.617-1.638 10.372-4.286 4.082 2.56 8.56 4.9 11.562 7.048v91.023L127.72 199l77.605-45.284a303.02 303.02 0 0 1 12.307 7.316 15.183 15.183 0 0 0-.883 5.152c0 8.446 6.886 15.318 15.332 15.318 8.446 0 15.324-6.872 15.324-15.318s-6.863-15.317-15.31-15.317Z" fill="#343532"/>
</svg>
